webroot/icon/times.svg

<svg width="24" height="24" viewBox="0 0 24 24" fill="none" xmlns="http://www.w3.org/2000/svg"><path d="M15.7909 12L21.4767 6.3142C22.1744 5.61648 22.1744 4.48523 21.4767 3.78693L20.2131 2.5233C19.5153 1.82557 18.3841 1.82557 17.6858 2.5233L12 8.20909L6.3142 2.5233C5.61648 1.82557 4.48523 1.82557 3.78693 2.5233L2.5233 3.78693C1.82557 4.48466 1.82557 5.61591 2.5233 6.3142L8.20909 12L2.5233 17.6858C1.82557 18.3835 1.82557 19.5148 2.5233 20.2131L3.78693 21.4767C4.48466 22.1744 5.61648 22.1744 6.3142 21.4767L12 15.7909L17.6858 21.4767C18.3835 22.1744 19.5153 22.1744 20.2131 21.4767L21.4767 20.2131C22.1744 19.5153 22.1744 18.3841 21.4767 17.6858L15.7909 12Z"/></svg>

<svg width="24" height="24" viewBox="0 0 24 24" fill="none" xmlns="http://www.w3.org/2000/svg"><path d="M15.79 12l5.687-5.686a1.787 1.787 0 000-2.527l-1.264-1.264a1.787 1.787 0 00-2.527 0L12 8.21 6.314 2.523a1.787 1.787 0 00-2.527 0L2.523 3.787a1.787 1.787 0 000 2.527L8.21 12l-5.686 5.686a1.787 1.787 0 000 2.527l1.264 1.264c.698.697 1.83.697 2.527 0L12 15.79l5.686 5.686c.698.697 1.83.697 2.527 0l1.264-1.264a1.787 1.787 0 000-2.527L15.79 12z"/></svg>
